; generated by PrusaSlicer 2.2.0+win64 on 2021-01-01 at 21:56:11 UTC

; 

; external perimeters extrusion width = 0.45mm
; perimeters extrusion width = 0.45mm
; infill extrusion width = 0.45mm
; solid infill extrusion width = 0.45mm
; top infill extrusion width = 0.40mm
; first layer extrusion width = 0.42mm

M73 P0 R177
M73 Q0 S184
M201 X1000 Y1000 Z200 E5000 ; sets maximum accelerations, mm/sec^2
M203 X200 Y200 Z12 E120 ; sets maximum feedrates, mm/sec
M204 P1250 R1250 T1250 ; sets acceleration (P, T) and retract acceleration (R), mm/sec^2
M205 X8.00 Y8.00 Z0.40 E4.50 ; sets the jerk limits, mm/sec
M205 S0 T0 ; sets the minimum extruding and travel feed rate, mm/sec
M107
M862.3 P "MK3S" ; printer model check
M862.1 P0.4 ; nozzle diameter check
M115 U3.9.1 ; tell printer latest fw version
G90 ; use absolute coordinates
M83 ; extruder relative mode
M104 S215 ; set extruder temp
M140 S60 ; set bed temp
M190 S60 ; wait for bed temp
M109 S215 ; wait for extruder temp
G28 W ; home all without mesh bed level
G80 ; mesh bed leveling
G1 Y-3.0 F1000.0 ; go outside print area
G92 E0.0
G1 X60.0 E9.0 F1000.0 ; intro line
M73 Q0 S184
M73 P0 R177
G1 X100.0 E12.5 F1000.0 ; intro line
G92 E0.0
M221 S95

; Don't change E values below. Excessive value can damage the printer.

M907 E538 ; set extruder motor current
G21 ; set units to millimeters
G90 ; use absolute coordinates
M83 ; use relative distances for extrusion
M900 K0.05 ; Filament gcode LA 1.5
M900 K30 ; Filament gcode LA 1.0
;BEFORE_LAYER_CHANGE
G92 E0.0
;0.2


G1 E-0.80000 F2100.00000
G1 Z0.600 F10800.000
;AFTER_LAYER_CHANGE
;0.2
G1 X72.432 Y59.200
G1 Z0.200
G1 E0.80000 F2100.00000
M204 S1000
G1 F1200.000
G1 X73.631 Y57.862 E0.05634
G1 X74.573 Y57.065 E0.03869
G1 X76.001 Y56.162 E0.05298
G1 X77.114 Y55.645 E0.03849
G1 X78.273 Y55.265 E0.03824
G1 X80.029 Y54.945 E0.05596
G1 X81.074 Y54.894 E0.03279
G1 X133.539 Y54.894 E1.64501
G1 X135.343 Y55.048 E0.05677
G1 X136.555 Y55.323 E0.03898
G1 X138.251 Y55.976 E0.05696
G1 X139.396 Y56.619 E0.04118
G1 X140.830 Y57.719 E0.05667
G1 X142.071 Y59.063 E0.05735
G1 X142.862 Y60.221 E0.04397
G1 X143.649 Y61.848 E0.05668
G1 X144.206 Y63.716 E0.06113
G1 X146.119 Y71.333 E0.24621
G1 X147.876 Y79.859 E0.27295
G1 X149.256 Y88.435 E0.27237
G1 X150.260 Y97.074 E0.27270
G1 X150.876 Y105.521 E0.26553
G1 X151.132 Y114.130 E0.27005
G1 X151.004 Y123.002 E0.27821
G1 X150.499 Y131.642 E0.27135
G1 X149.665 Y139.882 E0.25971
G1 X148.340 Y148.940 E0.28700
G1 X146.672 Y157.592 E0.27629
G1 X144.821 Y165.448 E0.25306
G1 X144.298 Y167.135 E0.05538
G1 X143.831 Y168.293 E0.03915
G1 X142.746 Y170.401 E0.07435
G1 X141.693 Y171.974 E0.05933
G1 X140.170 Y173.761 E0.07363
G1 X138.317 Y175.459 E0.07879
G1 X136.384 Y176.809 E0.07394
G1 X134.192 Y177.946 E0.07742
G1 X131.959 Y178.776 E0.07470
G1 X129.621 Y179.308 E0.07518
G1 X128.368 Y179.473 E0.03963
G1 X126.606 Y179.557 E0.05531
G1 X87.965 Y179.556 E1.21155
G1 X86.209 Y179.470 E0.05513
G1 X84.412 Y179.208 E0.05694
G1 X82.652 Y178.775 E0.05682
G1 X80.907 Y178.160 E0.05802
G1 X79.294 Y177.412 E0.05575
G1 X77.696 Y176.472 E0.05813
G1 X76.230 Y175.406 E0.05682
G1 X74.438 Y173.755 E0.07640
G1 X72.921 Y171.975 E0.07333
G1 X71.905 Y170.465 E0.05706
G1 X71.028 Y168.840 E0.05790
G1 X70.322 Y167.154 E0.05730
G1 X69.740 Y165.243 E0.06265
G1 X67.773 Y156.841 E0.27055
G1 X66.175 Y148.380 E0.26999
G1 X64.942 Y139.832 E0.27079
G1 X64.084 Y131.270 E0.26982
G1 X63.596 Y122.677 E0.26985
G1 X63.482 Y114.057 E0.27029
G1 X63.740 Y105.449 E0.27001
G1 X64.369 Y96.887 E0.26920
G1 X65.363 Y88.390 E0.26821
G1 X66.733 Y79.880 E0.27028
G1 X68.659 Y70.637 E0.29603
G1 X70.615 Y62.922 E0.24955
G1 X71.028 Y61.690 E0.04074
G1 X71.748 Y60.225 E0.05117
G1 X72.399 Y59.250 E0.03676
G1 F8640.000
G1 X73.631 Y57.862 E-0.42866
G1 X74.573 Y57.065 E-0.28494
G1 X74.743 Y56.957 E-0.04640
G1 E-0.04000 F2100.00000
G1 Z0.800 F10800.000
G1 X75.228 Y61.423
G1 Z0.200
G1 E0.80000 F2100.00000
G1 F1200.000
G1 X75.494 Y61.077 E0.01370
G1 X76.031 Y60.497 E0.02477
G1 X76.483 Y60.098 E0.01891
G1 X76.794 Y59.855 E0.01238
G1 X77.461 Y59.424 E0.02489
G1 X77.995 Y59.145 E0.01891
G1 X78.728 Y58.850 E0.02477
G1 X79.306 Y58.678 E0.01891
G1 X79.687 Y58.593 E0.01224
G1 X80.382 Y58.492 E0.02201
G1 X81.096 Y58.458 E0.02242
G1 X133.575 Y58.461 E1.64544
G1 X134.231 Y58.492 E0.02060
G1 X134.920 Y58.592 E0.02183
G1 X135.602 Y58.759 E0.02201
G1 X135.972 Y58.880 E0.01220
G1 X136.623 Y59.148 E0.02208
G1 X137.152 Y59.424 E0.01871
G1 X137.485 Y59.625 E0.01219
G1 X138.059 Y60.038 E0.02217
G1 X138.358 Y60.289 E0.01223
G1 X138.860 Y60.780 E0.02202
G1 X139.312 Y61.316 E0.02199
G1 X139.538 Y61.633 E0.01220
G1 X139.855 Y62.138 E0.01870
G1 X140.172 Y62.767 E0.02210
G1 X140.322 Y63.126 E0.01218
G1 X140.544 Y63.804 E0.02239
G1 X142.626 Y72.048 E0.26658
G1 X144.369 Y80.508 E0.27083
G1 X145.718 Y88.890 E0.26619
G1 X146.693 Y97.204 E0.26246
G1 X147.299 Y105.433 E0.25873
G1 X147.567 Y114.114 E0.27230
G1 X147.450 Y122.656 E0.26787
G1 X146.968 Y131.099 E0.26514
G1 X146.119 Y139.513 E0.26518
G1 X144.901 Y147.925 E0.26650
G1 X143.334 Y156.193 E0.26383
G1 X141.375 Y164.537 E0.26874
G1 X141.151 Y165.312 E0.02530
G1 X140.932 Y165.960 E0.02145
G1 X140.638 Y166.704 E0.02509
G1 X140.355 Y167.330 E0.02153
G1 X140.042 Y167.943 E0.02159
G1 X139.648 Y168.637 E0.02503
G1 X139.215 Y169.310 E0.02507
G1 X138.817 Y169.868 E0.02150
G1 X138.390 Y170.410 E0.02162
G1 X137.870 Y171.015 E0.02501
G1 X137.315 Y171.591 E0.02508
G1 X136.817 Y172.061 E0.02147
G1 X136.292 Y172.510 E0.02166
G1 X135.665 Y173.003 E0.02500
G1 X135.011 Y173.460 E0.02503
G1 X134.334 Y173.881 E0.02501
G1 X133.732 Y174.219 E0.02164
G1 X133.119 Y174.526 E0.02149
G1 X132.388 Y174.849 E0.02507
G1 X131.641 Y175.131 E0.02502
G1 X130.986 Y175.346 E0.02161
G1 X130.325 Y175.528 E0.02152
G1 X129.545 Y175.704 E0.02506
G1 X128.758 Y175.837 E0.02503
G1 X128.075 Y175.920 E0.02158
G1 X127.391 Y175.971 E0.02148
G1 X126.578 Y175.993 E0.02552
G1 X88.035 Y175.993 E1.20849
G1 X87.221 Y175.971 E0.02552
G1 X86.539 Y175.920 E0.02145
G1 X85.745 Y175.821 E0.02509
G1 X85.069 Y175.704 E0.02151
G1 X84.288 Y175.528 E0.02510
G1 X83.627 Y175.346 E0.02150
G1 X82.866 Y175.095 E0.02511
G1 X82.226 Y174.850 E0.02150
G1 X81.595 Y174.572 E0.02162
G1 X80.880 Y174.219 E0.02501
G1 X80.183 Y173.826 E0.02508
G1 X79.603 Y173.461 E0.02147
G1 X78.946 Y173.002 E0.02514
G1 X78.405 Y172.582 E0.02146
G1 X77.795 Y172.061 E0.02514
G1 X77.298 Y171.591 E0.02147
G1 X76.742 Y171.013 E0.02513
G1 X76.292 Y170.497 E0.02148
G1 X75.795 Y169.868 E0.02512
G1 X75.398 Y169.310 E0.02149
G1 X74.964 Y168.636 E0.02511
G1 X74.623 Y168.042 E0.02150
G1 X74.258 Y167.331 E0.02506
G1 X73.933 Y166.601 E0.02503
G1 X73.681 Y165.961 E0.02158
G1 X73.461 Y165.313 E0.02146
G1 X73.229 Y164.498 E0.02655
G1 X71.288 Y156.239 E0.26602
G1 X69.709 Y147.903 E0.26600
G1 X68.492 Y139.504 E0.26610
G1 X67.642 Y131.060 E0.26609
G1 X67.160 Y122.593 E0.26591
G1 X67.046 Y114.108 E0.26607
G1 X67.300 Y105.626 E0.26606
G1 X67.923 Y97.172 E0.26580
G1 X68.911 Y88.754 E0.26574
G1 X70.265 Y80.380 E0.26598
G1 X72.019 Y71.913 E0.27112
G1 X74.067 Y63.809 E0.26208
G1 X74.291 Y63.126 E0.02254
G1 X74.441 Y62.766 E0.01223
G1 X74.710 Y62.226 E0.01891
G1 X74.908 Y61.884 E0.01239
G1 X75.191 Y61.471 E0.01572
G1 X74.892 Y61.241 F10800.000
G1 F1200.000
G1 X75.202 Y60.838 E0.01595
G1 X75.477 Y60.523 E0.01310
G1 X75.771 Y60.223 E0.01318
G1 X76.242 Y59.808 E0.01968
G1 X76.571 Y59.551 E0.01309
G1 X76.918 Y59.312 E0.01323
G1 X77.276 Y59.096 E0.01309
G1 X77.832 Y58.805 E0.01968
G1 X78.217 Y58.636 E0.01317
G1 X78.609 Y58.492 E0.01311
G1 X79.211 Y58.313 E0.01968
G1 X79.619 Y58.222 E0.01310
G1 X80.346 Y58.116 E0.02303
G1 X81.087 Y58.081 E0.02327
G1 X133.584 Y58.084 E1.64601
G1 X134.267 Y58.116 E0.02145
G1 X134.992 Y58.221 E0.02297
G1 X135.706 Y58.396 E0.02303
G1 X136.103 Y58.526 E0.01309
G1 X136.783 Y58.806 E0.02306
G1 X137.337 Y59.096 E0.01961
G1 X137.693 Y59.310 E0.01302
G1 X138.291 Y59.740 E0.02309
G1 X138.611 Y60.010 E0.01312
G1 X139.136 Y60.523 E0.02303
G1 X139.610 Y61.084 E0.02302
G1 X139.852 Y61.423 E0.01304
G1 X140.183 Y61.953 E0.01961
G1 X140.515 Y62.610 E0.02307
G1 X140.675 Y62.995 E0.01307
G1 X140.907 Y63.699 E0.02326
G1 X142.994 Y71.963 E0.26725
G1 X144.740 Y80.440 E0.27135
G1 X146.092 Y88.838 E0.26670
G1 X147.069 Y97.168 E0.26297
G1 X147.676 Y105.414 E0.25924
G1 X147.944 Y114.110 E0.27282
G1 X147.827 Y122.670 E0.26839
G1 X147.344 Y131.128 E0.26565
G1 X146.494 Y139.559 E0.26569
G1 X145.273 Y147.987 E0.26701
G1 X143.702 Y156.271 E0.26434
G1 X141.739 Y164.632 E0.26929
G1 X141.511 Y165.425 E0.02586
G1 X141.286 Y166.090 E0.02203
G1 X140.985 Y166.851 E0.02566
G1 X140.695 Y167.494 E0.02209
G1 X140.374 Y168.122 E0.02214
G1 X139.970 Y168.833 E0.02561
G1 X139.527 Y169.521 E0.02567
G1 X139.119 Y170.095 E0.02207
G1 X138.681 Y170.650 E0.02217
G1 X138.149 Y171.268 E0.02559
G1 X137.581 Y171.859 E0.02569
G1 X137.069 Y172.342 E0.02204
G1 X136.532 Y172.802 E0.02219
G1 X135.890 Y173.306 E0.02558
G1 X135.219 Y173.775 E0.02568
G1 X134.525 Y174.205 E0.02558
G1 X133.909 Y174.552 E0.02218
G1 X133.280 Y174.867 E0.02206
G1 X132.531 Y175.198 E0.02568
G1 X131.767 Y175.487 E0.02560
G1 X131.095 Y175.707 E0.02216
G1 X130.416 Y175.894 E0.02208
G1 X129.618 Y176.074 E0.02566
G1 X128.812 Y176.210 E0.02562
G1 X128.111 Y176.296 E0.02213
G1 X127.410 Y176.347 E0.02204
G1 X126.583 Y176.370 E0.02595
G1 X88.030 Y176.370 E1.20881
G1 X87.202 Y176.347 E0.02595
G1 X86.502 Y176.296 E0.02203
G1 X85.690 Y176.194 E0.02566
G1 X84.995 Y176.074 E0.02209
G1 X84.197 Y175.894 E0.02568
G1 X83.518 Y175.707 E0.02208
G1 X82.740 Y175.450 E0.02569
G1 X82.082 Y175.198 E0.02207
G1 X81.435 Y174.913 E0.02217
G1 X80.703 Y174.552 E0.02559
G1 X79.990 Y174.150 E0.02569
G1 X79.394 Y173.776 E0.02204
G1 X78.722 Y173.305 E0.02572
G1 X78.167 Y172.875 E0.02204
G1 X77.543 Y172.342 E0.02572
G1 X77.032 Y171.859 E0.02204
G1 X76.464 Y171.268 E0.02571
G1 X76.002 Y170.738 E0.02205
G1 X75.494 Y170.095 E0.02570
G1 X75.085 Y169.521 E0.02207
G1 X74.642 Y168.832 E0.02569
G1 X74.292 Y168.222 E0.02208
G1 X73.918 Y167.494 E0.02566
G1 X73.585 Y166.747 E0.02562
G1 X73.326 Y166.090 E0.02213
G1 X73.101 Y165.425 E0.02203
G1 X72.864 Y164.593 E0.02712
G1 X70.919 Y156.317 E0.26656
G1 X69.337 Y147.966 E0.26651
G1 X68.118 Y139.550 E0.26661
G1 X67.266 Y131.090 E0.26660
G1 X66.783 Y122.606 E0.26643
G1 X66.669 Y114.105 E0.26658
G1 X66.924 Y105.607 E0.26657
G1 X67.547 Y97.136 E0.26632
G1 X68.537 Y88.702 E0.26626
G1 X69.894 Y80.311 E0.26650
G1 X71.651 Y71.828 E0.27164
G1 X73.705 Y63.704 E0.26274
G1 X73.937 Y62.994 E0.02341
G1 X74.098 Y62.609 E0.01309
G1 X74.378 Y62.047 E0.01968
G1 X74.588 Y61.685 E0.01312
G1 X74.856 Y61.289 E0.01501
G1 X75.290 Y61.282 F10800.000
G1 F8640.000
G1 X75.202 Y60.838 E-0.13132
G1 X75.477 Y60.523 E-0.09647
G1 X75.771 Y60.223 E-0.09706
G1 X76.242 Y59.808 E-0.14495
G1 X76.571 Y59.551 E-0.09639
G1 X76.918 Y59.312 E-0.09741
G1 X77.276 Y59.096 E-0.09640
G1 E-0.04000 F2100.00000
G1 Z0.800 F10800.000
G1 X79.029 Y172.922
G1 Z0.200
G1 E0.80000 F2100.00000
G1 F1200.000
G1 X76.951 Y170.822 E0.09284
G1 X76.510 Y170.316 E0.02110
G1 X76.022 Y169.698 E0.02474
M73 Q0 S183
G1 X75.632 Y169.151 E0.02111
G1 X75.341 Y168.699 E0.01690
G1 X80.051 Y173.409 E0.20931
G1 X81.012 Y173.968 E0.03495
G1 X81.275 Y174.098 E0.00922
G1 X74.648 Y167.472 E0.29450
M73 P0 R176
G1 X74.187 Y166.476 E0.03447
G1 X82.271 Y174.561 E0.35929
G1 X83.130 Y174.884 E0.02882
G1 X73.863 Y165.618 E0.41183
G1 X73.621 Y164.841 E0.02558
G1 X83.911 Y175.131 E0.45734
G1 X84.630 Y175.315 E0.02332
G1 X73.429 Y164.114 E0.49780
G1 X73.265 Y163.416 E0.02255
G1 X85.307 Y175.458 E0.53521
G1 X85.944 Y175.561 E0.02027
G1 X73.101 Y162.717 E0.57081
G1 X72.937 Y162.019 E0.02255
G1 X86.555 Y175.638 E0.60526
G1 X87.133 Y175.680 E0.01820
G1 X72.772 Y161.320 E0.63822
G1 X72.608 Y160.621 E0.02255
G1 X87.687 Y175.700 E0.67016
G1 X88.231 Y175.710 E0.01710
G1 X72.444 Y159.923 E0.70164
G1 X72.280 Y159.224 E0.02255
G1 X88.766 Y175.710 E0.73268
G1 X89.300 Y175.710 E0.01680
G1 X72.116 Y158.526 E0.76373
G1 X71.952 Y157.827 E0.02255
G1 X89.835 Y175.710 E0.79478
G1 X90.369 Y175.710 E0.01680
G1 X71.788 Y157.128 E0.82583
G1 X71.624 Y156.430 E0.02255
G1 X90.904 Y175.710 E0.85688
G1 X91.438 Y175.710 E0.01680
G1 X71.485 Y155.756 E0.88681
G1 X71.360 Y155.097 E0.02109
G1 X91.973 Y175.710 E0.91611
G1 X92.507 Y175.710 E0.01680
G1 X71.235 Y154.437 E0.94542
G1 X71.110 Y153.778 E0.02109
G1 X93.042 Y175.710 E0.97473
G1 X93.576 Y175.710 E0.01680
G1 X70.985 Y153.119 E1.00404
G1 X70.860 Y152.459 E0.02109
G1 X94.111 Y175.710 E1.03335
G1 X94.645 Y175.710 E0.01680
G1 X70.735 Y151.800 E1.06266
G1 X70.610 Y151.140 E0.02109
G1 X95.180 Y175.710 E1.09196
G1 X95.714 Y175.710 E0.01680
G1 X70.485 Y150.481 E1.12127
G1 X70.360 Y149.821 E0.02109
G1 X96.249 Y175.710 E1.15058
G1 X96.783 Y175.710 E0.01680
G1 X70.235 Y149.162 E1.17989
G1 X70.110 Y148.502 E0.02109
G1 X97.318 Y175.710 E1.20920
G1 X97.852 Y175.710 E0.01680
G1 X69.986 Y147.844 E1.23847
G1 X69.895 Y147.219 E0.01985
G1 X98.387 Y175.710 E1.26625
G1 X98.921 Y175.710 E0.01680
G1 X69.805 Y146.594 E1.29403
G1 X69.714 Y145.969 E0.01985
G1 X99.456 Y175.710 E1.32180
G1 X99.990 Y175.710 E0.01680
G1 X69.624 Y145.344 E1.34958
G1 X69.533 Y144.719 E0.01985
G1 X100.525 Y175.710 E1.37736
G1 X101.059 Y175.710 E0.01680
G1 X69.443 Y144.094 E1.40514
G1 X69.352 Y143.469 E0.01985
G1 X101.594 Y175.710 E1.43291
G1 X102.128 Y175.710 E0.01680
G1 X69.262 Y142.844 E1.46069
G1 X69.171 Y142.219 E0.01985
G1 X102.663 Y175.710 E1.48847
G1 X103.197 Y175.710 E0.01680
G1 X69.081 Y141.594 E1.51624
M73 Q1 S182
M73 P1 R175
G1 X68.990 Y140.969 E0.01985
G1 X103.732 Y175.710 E1.54402
G1 X104.266 Y175.710 E0.01680
G1 X68.900 Y140.344 E1.57180
G1 X68.809 Y139.719 E0.01985
G1 X104.801 Y175.710 E1.59957
G1 X105.335 Y175.710 E0.01680
G1 X68.737 Y139.112 E1.62653
G1 X68.677 Y138.518 E0.01877
G1 X105.870 Y175.710 E1.65294
G1 X106.404 Y175.710 E0.01680
G1 X68.617 Y137.923 E1.67936
G1 X68.558 Y137.329 E0.01877
G1 X106.939 Y175.710 E1.70577
G1 X107.473 Y175.710 E0.01680
G1 X68.498 Y136.735 E1.73219
G1 X68.438 Y136.140 E0.01877
G1 X108.008 Y175.710 E1.75860
G1 X108.542 Y175.710 E0.01680
G1 X68.378 Y135.546 E1.78501
G1 X68.318 Y134.952 E0.01877
G1 X109.077 Y175.710 E1.81143
G1 X109.611 Y175.710 E0.01680
G1 X68.258 Y134.357 E1.83784
G1 X68.199 Y133.763 E0.01877
G1 X110.146 Y175.710 E1.86426
G1 X110.680 Y175.710 E0.01680
G1 X68.139 Y133.169 E1.89067
G1 X68.079 Y132.574 E0.01877
G1 X111.215 Y175.710 E1.91708
G1 X111.749 Y175.710 E0.01680
G1 X68.019 Y131.980 E1.94350
G1 X67.959 Y131.386 E0.01877
G1 X112.284 Y175.710 E1.96991
G1 X112.818 Y175.710 E0.01680
G1 X67.911 Y130.803 E1.99582
G1 X67.878 Y130.236 E0.01784
G1 X113.353 Y175.710 E2.02101
G1 X113.887 Y175.710 E0.01680
G1 X67.846 Y129.669 E2.04620
G1 X67.814 Y129.103 E0.01784
G1 X114.422 Y175.710 E2.07139
M73 Q1 S181
M73 P1 R174
G1 X114.956 Y175.710 E0.01680
G1 X67.782 Y128.536 E2.09658
G1 X67.749 Y127.969 E0.01784
G1 X115.490 Y175.710 E2.12176
G1 X116.025 Y175.710 E0.01680
G1 X67.717 Y127.402 E2.14695
G1 X67.685 Y126.835 E0.01784
G1 X116.559 Y175.710 E2.17214
G1 X117.094 Y175.710 E0.01680
G1 X67.652 Y126.269 E2.19733
G1 X67.620 Y125.702 E0.01784
G1 X117.628 Y175.710 E2.22252
G1 X118.163 Y175.710 E0.01680
G1 X67.588 Y125.135 E2.24771
G1 X67.556 Y124.568 E0.01784
G1 X118.697 Y175.710 E2.27290
G1 X119.232 Y175.710 E0.01680
G1 X67.523 Y124.002 E2.29809
G1 X67.491 Y123.435 E0.01784
G1 X119.766 Y175.710 E2.32328
G1 X120.301 Y175.710 E0.01680
G1 X67.459 Y122.868 E2.34847
G1 X67.439 Y122.314 E0.01743
G1 X120.835 Y175.710 E2.37310
G1 X121.370 Y175.710 E0.01680
G1 X67.432 Y121.772 E2.39718
G1 X67.424 Y121.230 E0.01703
G1 X121.904 Y175.710 E2.42126
G1 X122.439 Y175.710 E0.01680
G1 X67.417 Y120.688 E2.44534
G1 X67.410 Y120.147 E0.01703
G1 X122.973 Y175.710 E2.46942
G1 X123.508 Y175.710 E0.01680
G1 X67.403 Y119.605 E2.49350
M73 Q2 S180
M73 P2 R173
G1 X67.395 Y119.063 E0.01703
G1 X124.042 Y175.710 E2.51757
G1 X124.577 Y175.710 E0.01680
G1 X67.388 Y118.521 E2.54165
G1 X67.381 Y117.979 E0.01703
G1 X125.111 Y175.710 E2.56573
G1 X125.646 Y175.710 E0.01680
G1 X67.373 Y117.438 E2.58981
